src/assets/icons/custom/truenas-ce-badge-color.svg

<svg xmlns="http://www.w3.org/2000/svg" viewBox="0 0 204 29">
  <path fill="#0A95D3"
    d="M28.29 10.97c-.51-.31-1.08-.46-1.73-.46-.65 0-1.22.15-1.73.46-.51.31-.91.75-1.2 1.34-.29.59-.44 1.32-.44 2.18 0 .86.15 1.59.44 2.18.29.59.69 1.04 1.2 1.34.51.31 1.08.46 1.73.46.65 0 1.22-.15 1.73-.46.51-.3.91-.75 1.2-1.34.29-.59.44-1.32.44-2.18 0-.86-.15-1.59-.44-2.18-.29-.59-.69-1.04-1.2-1.34ZM143.39 11.05c-.55-.3-1.23-.45-2.05-.45h-1.95v7.8h1.84c.85 0 1.56-.15 2.13-.46.56-.31.99-.75 1.27-1.33.28-.58.42-1.29.42-2.13 0-.84-.14-1.54-.42-2.11-.28-.58-.69-1.02-1.24-1.32ZM179.71 10.97c-.51-.31-1.08-.46-1.73-.46-.65 0-1.22.15-1.73.46-.51.31-.91.75-1.2 1.34-.29.59-.44 1.32-.44 2.18 0 .86.15 1.59.44 2.18.29.59.69 1.04 1.2 1.34.51.31 1.08.46 1.73.46.65 0 1.22-.15 1.73-.46.51-.3.91-.75 1.2-1.34.29-.59.44-1.32.44-2.18 0-.86-.15-1.59-.44-2.18-.29-.59-.69-1.04-1.2-1.34Z" />
  <path fill="#0A95D3"
    d="M.68.01v29h203v-29H.68Zm10.09 16.67c.29.59.7 1.04 1.21 1.34.51.3 1.08.45 1.72.45.35 0 .69-.05 1.01-.14.32-.09.61-.23.87-.41.26-.18.48-.4.66-.66.18-.26.31-.56.37-.9h1.71c-.09.53-.27 1-.53 1.44-.26.44-.59.81-1 1.13a4.5 4.5 0 0 1-1.39.73c-.52.17-1.09.26-1.71.26-.97 0-1.83-.22-2.59-.65a4.612 4.612 0 0 1-1.79-1.87c-.44-.81-.65-1.78-.65-2.91 0-1.13.22-2.1.66-2.91.44-.81 1.04-1.44 1.79-1.87.75-.43 1.62-.65 2.59-.65.59 0 1.15.08 1.67.24.52.16.98.39 1.39.7.41.31.75.68 1.02 1.13.27.44.45.95.55 1.52h-1.71a2.46 2.46 0 0 0-.37-.91c-.18-.26-.4-.48-.66-.67a2.9 2.9 0 0 0-.87-.41c-.32-.09-.66-.14-1.01-.14-.65 0-1.22.15-1.73.46-.51.31-.91.76-1.2 1.35-.29.59-.44 1.32-.44 2.17 0 .85.15 1.59.44 2.18h-.01Zm20.18.73c-.44.81-1.04 1.44-1.8 1.87-.76.44-1.62.65-2.59.65-.97 0-1.83-.22-2.59-.65-.76-.43-1.36-1.06-1.8-1.87-.44-.81-.66-1.78-.66-2.91 0-1.13.22-2.1.66-2.91.44-.81 1.04-1.44 1.8-1.87.76-.43 1.63-.65 2.59-.65s1.83.22 2.59.65a4.7 4.7 0 0 1 1.8 1.87c.44.81.66 1.78.66 2.91 0 1.13-.22 2.1-.66 2.91Zm15.66 2.38H45v-7.66h-.1l-3.3 7.65h-1.33l-3.3-7.65h-.1v7.67h-1.61V9.21h2.05l3.57 8.23h.13l3.57-8.23h2.05V19.8l-.02-.01Zm15.37 0h-1.61v-7.66h-.1l-3.3 7.65h-1.33l-3.3-7.65h-.1v7.67h-1.61V9.21h2.05l3.57 8.23h.13l3.57-8.23H62V19.8l-.02-.01Zm12.9-3.62c0 .74-.18 1.4-.55 1.97-.37.57-.89 1.02-1.55 1.34-.66.32-1.45.49-2.35.49-.9 0-1.67-.16-2.34-.49-.67-.33-1.19-.77-1.55-1.34-.37-.57-.55-1.23-.55-1.97V9.21h1.69v6.84c0 .48.11.9.34 1.28.22.37.54.66.95.88.41.21.9.32 1.47.32s1.06-.11 1.47-.32c.41-.21.73-.5.95-.88.22-.37.33-.8.33-1.28V9.21h1.7v6.96h-.01Zm13.04 3.62h-1.55l-5.69-7.77h-.1v7.77h-1.69V9.2h1.56l5.7 7.78h.1V9.2h1.67v10.59Zm5.69 0h-1.69V9.2h1.69v10.59Zm12.11-9.21h-3.49v9.21h-1.68v-9.21h-3.49V9.2h8.67v1.38h-.01Zm8.34 5.05v4.16h-1.68v-4.16l-4.06-6.43h1.92l2.93 4.81h.12l2.93-4.81h1.92l-4.06 6.43h-.02Zm19.9 4.16h-7.09V9.2h7.02v1.38h-5.33v3.23h4.97v1.37h-4.97v3.24h5.4v1.38-.01Zm12.12-2.47c-.42.79-1.04 1.4-1.84 1.83-.8.43-1.77.64-2.91.64h-3.63V9.2h3.74c1.1 0 2.04.21 2.83.63.79.42 1.39 1.03 1.81 1.81.42.79.63 1.73.63 2.83s-.21 2.05-.64 2.84l.01.01Zm5.96 2.47h-1.69V9.2h1.69v10.59Zm12.12-9.21h-3.49v9.21h-1.68v-9.21h-3.49V9.2h8.67v1.38h-.01Zm5.14 9.21h-1.69V9.2h1.69v10.59Zm13.07-2.38c-.44.81-1.04 1.44-1.8 1.87-.76.44-1.62.65-2.59.65-.97 0-1.83-.22-2.59-.65a4.7 4.7 0 0 1-1.8-1.87c-.44-.81-.66-1.78-.66-2.91 0-1.13.22-2.1.66-2.91.44-.81 1.04-1.44 1.8-1.87.76-.44 1.62-.65 2.59-.65.97 0 1.83.22 2.59.65a4.7 4.7 0 0 1 1.8 1.87c.44.81.66 1.78.66 2.91 0 1.13-.22 2.1-.66 2.91Zm13.34 2.38h-1.55l-5.69-7.77h-.1v7.77h-1.69V9.2h1.56l5.7 7.78h.1V9.2h1.67v10.59Z" />
</svg>

<svg viewBox="0 0 204 29" fill="none" xmlns="http://www.w3.org/2000/svg">
<path d="M28.29 10.97C27.78 10.66 27.21 10.51 26.56 10.51C25.91 10.51 25.34 10.66 24.83 10.97C24.32 11.28 23.92 11.72 23.63 12.31C23.34 12.9 23.19 13.63 23.19 14.49C23.19 15.35 23.34 16.08 23.63 16.67C23.92 17.26 24.32 17.71 24.83 18.01C25.34 18.32 25.91 18.47 26.56 18.47C27.21 18.47 27.78 18.32 28.29 18.01C28.8 17.71 29.2 17.26 29.49 16.67C29.78 16.08 29.93 15.35 29.93 14.49C29.93 13.63 29.78 12.9 29.49 12.31C29.2 11.72 28.8 11.27 28.29 10.97Z" fill="#0A95D3"/>
<path d="M143.39 11.05C142.84 10.75 142.16 10.6 141.34 10.6H139.39V18.4H141.23C142.08 18.4 142.79 18.25 143.36 17.94C143.92 17.63 144.35 17.19 144.63 16.61C144.91 16.03 145.05 15.32 145.05 14.48C145.05 13.64 144.91 12.94 144.63 12.37C144.35 11.79 143.94 11.35 143.39 11.05Z" fill="#0A95D3"/>
<path d="M179.71 10.97C179.2 10.66 178.63 10.51 177.98 10.51C177.33 10.51 176.76 10.66 176.25 10.97C175.74 11.28 175.34 11.72 175.05 12.31C174.76 12.9 174.61 13.63 174.61 14.49C174.61 15.35 174.76 16.08 175.05 16.67C175.34 17.26 175.74 17.71 176.25 18.01C176.76 18.32 177.33 18.47 177.98 18.47C178.63 18.47 179.2 18.32 179.71 18.01C180.22 17.71 180.62 17.26 180.91 16.67C181.2 16.08 181.35 15.35 181.35 14.49C181.35 13.63 181.2 12.9 180.91 12.31C180.62 11.72 180.22 11.27 179.71 10.97Z" fill="#0A95D3"/>
<path d="M0.679993 0.00999451V29.01H203.68V0.00999451H0.679993ZM10.77 16.68C11.06 17.27 11.47 17.72 11.98 18.02C12.49 18.32 13.06 18.47 13.7 18.47C14.05 18.47 14.39 18.42 14.71 18.33C15.03 18.24 15.32 18.1 15.58 17.92C15.84 17.74 16.06 17.52 16.24 17.26C16.42 17 16.55 16.7 16.61 16.36H18.32C18.23 16.89 18.05 17.36 17.79 17.8C17.53 18.24 17.2 18.61 16.79 18.93C16.38 19.25 15.92 19.49 15.4 19.66C14.88 19.83 14.31 19.92 13.69 19.92C12.72 19.92 11.86 19.7 11.1 19.27C10.34 18.83 9.73999 18.21 9.30999 17.4C8.86999 16.59 8.66 15.62 8.66 14.49C8.66 13.36 8.87999 12.39 9.31999 11.58C9.75999 10.77 10.36 10.14 11.11 9.71C11.86 9.28 12.73 9.06 13.7 9.06C14.29 9.06 14.85 9.14 15.37 9.3C15.89 9.46 16.35 9.69 16.76 10C17.17 10.31 17.51 10.68 17.78 11.13C18.05 11.57 18.23 12.08 18.33 12.65H16.62C16.55 12.31 16.43 12 16.25 11.74C16.07 11.48 15.85 11.26 15.59 11.07C15.33 10.89 15.04 10.75 14.72 10.66C14.4 10.57 14.06 10.52 13.71 10.52C13.06 10.52 12.49 10.67 11.98 10.98C11.47 11.29 11.07 11.74 10.78 12.33C10.49 12.92 10.34 13.65 10.34 14.5C10.34 15.35 10.49 16.09 10.78 16.68H10.77ZM30.95 17.41C30.51 18.22 29.91 18.85 29.15 19.28C28.39 19.72 27.53 19.93 26.56 19.93C25.59 19.93 24.73 19.71 23.97 19.28C23.21 18.85 22.61 18.22 22.17 17.41C21.73 16.6 21.51 15.63 21.51 14.5C21.51 13.37 21.73 12.4 22.17 11.59C22.61 10.78 23.21 10.15 23.97 9.72C24.73 9.29 25.6 9.07 26.56 9.07C27.52 9.07 28.39 9.29 29.15 9.72C29.91 10.16 30.51 10.78 30.95 11.59C31.39 12.4 31.61 13.37 31.61 14.5C31.61 15.63 31.39 16.6 30.95 17.41ZM46.61 19.79H45V12.13H44.9L41.6 19.78H40.27L36.97 12.13H36.87V19.8H35.26V9.21H37.31L40.88 17.44H41.01L44.58 9.21H46.63V19.8L46.61 19.79ZM61.98 19.79H60.37V12.13H60.27L56.97 19.78H55.64L52.34 12.13H52.24V19.8H50.63V9.21H52.68L56.25 17.44H56.38L59.95 9.21H62V19.8L61.98 19.79ZM74.88 16.17C74.88 16.91 74.7 17.57 74.33 18.14C73.96 18.71 73.44 19.16 72.78 19.48C72.12 19.8 71.33 19.97 70.43 19.97C69.53 19.97 68.76 19.81 68.09 19.48C67.42 19.15 66.9 18.71 66.54 18.14C66.17 17.57 65.99 16.91 65.99 16.17V9.21H67.68V16.05C67.68 16.53 67.79 16.95 68.02 17.33C68.24 17.7 68.56 17.99 68.97 18.21C69.38 18.42 69.87 18.53 70.44 18.53C71.01 18.53 71.5 18.42 71.91 18.21C72.32 18 72.64 17.71 72.86 17.33C73.08 16.96 73.19 16.53 73.19 16.05V9.21H74.89V16.17H74.88ZM87.92 19.79H86.37L80.68 12.02H80.58V19.79H78.89V9.2H80.45L86.15 16.98H86.25V9.2H87.92V19.79ZM93.61 19.79H91.92V9.2H93.61V19.79ZM105.72 10.58H102.23V19.79H100.55V10.58H97.06V9.2H105.73V10.58H105.72ZM114.06 15.63V19.79H112.38V15.63L108.32 9.2H110.24L113.17 14.01H113.29L116.22 9.2H118.14L114.08 15.63H114.06ZM133.96 19.79H126.87V9.2H133.89V10.58H128.56V13.81H133.53V15.18H128.56V18.42H133.96V19.8V19.79ZM146.08 17.32C145.66 18.11 145.04 18.72 144.24 19.15C143.44 19.58 142.47 19.79 141.33 19.79H137.7V9.2H141.44C142.54 9.2 143.48 9.41 144.27 9.83C145.06 10.25 145.66 10.86 146.08 11.64C146.5 12.43 146.71 13.37 146.71 14.47C146.71 15.57 146.5 16.52 146.07 17.31L146.08 17.32ZM152.04 19.79H150.35V9.2H152.04V19.79ZM164.16 10.58H160.67V19.79H158.99V10.58H155.5V9.2H164.17V10.58H164.16ZM169.3 19.79H167.61V9.2H169.3V19.79ZM182.37 17.41C181.93 18.22 181.33 18.85 180.57 19.28C179.81 19.72 178.95 19.93 177.98 19.93C177.01 19.93 176.15 19.71 175.39 19.28C174.63 18.84 174.03 18.22 173.59 17.41C173.15 16.6 172.93 15.63 172.93 14.5C172.93 13.37 173.15 12.4 173.59 11.59C174.03 10.78 174.63 10.15 175.39 9.72C176.15 9.28 177.01 9.07 177.98 9.07C178.95 9.07 179.81 9.29 180.57 9.72C181.33 10.16 181.93 10.78 182.37 11.59C182.81 12.4 183.03 13.37 183.03 14.5C183.03 15.63 182.81 16.6 182.37 17.41ZM195.71 19.79H194.16L188.47 12.02H188.37V19.79H186.68V9.2H188.24L193.94 16.98H194.04V9.2H195.71V19.79Z" fill="#0A95D3"/>
</svg>
